src/images/footer_logo_desktop_horizontal.svg

<svg width="167" height="40" viewBox="0 0 167 40" fill="none" xmlns="http://www.w3.org/2000/svg">
<rect opacity="0.5" x="11.9167" y="9.80392" width="18.75" height="19.6078" rx="9.375" fill="#00CC66"/>
<path d="M7.53665 31.6541C9.65404 28.9855 15.2572 23.3512 20.7309 22.1624C20.0052 24.3487 18.7236 29.6436 19.4024 33.3333C20.6729 30.406 25.4957 23.663 34.6236 20.1096C35.7107 19.3644 37.5446 16.3239 36.1832 10.1235C36.0173 9.95982 34.8485 9.43978 31.5005 8.66916C31.0526 8.50849 29.8757 7.94452 28.7511 6.97399C27.3453 5.76082 18.5845 8.42394 16.5704 10.0116C15.1146 9.7406 11.9699 9.67506 11.038 11.5807C10.1061 13.4863 11.0742 14.3012 11.6747 14.4705C10.0735 15.5521 6.83021 18.0004 6.66675 19.1404C8.53295 17.8563 12.874 15.2467 15.3087 15.0814C14.5802 13.919 13.8915 11.592 16.9648 11.5836C19.6992 10.0428 25.7043 7.14076 27.8495 7.85879C28.7856 8.39975 30.7495 9.48683 31.1159 9.50747C31.574 9.53326 33.7465 9.80677 33.7691 10.0726C33.779 10.1881 33.6204 10.3438 33.4459 10.5153C33.2184 10.7389 32.9637 10.9893 33.0195 11.2117C33.0598 11.3727 33.4794 11.6232 33.965 11.9132C34.6649 12.3311 35.5019 12.8308 35.5386 13.2625C35.5518 13.4179 35.5897 13.5863 35.6292 13.762C35.7756 14.4124 35.9444 15.1626 34.9667 15.7251C34.8252 15.8065 34.676 15.8974 34.5217 15.9913C33.3222 16.7215 31.814 17.6397 31.1954 15.7963C30.8427 14.745 30.8315 13.7998 30.8222 13.0172C30.8132 12.251 30.806 11.6406 30.4818 11.2389C29.8266 10.4271 28.2018 9.70251 26.9375 10.1511C25.926 10.5099 24.6412 11.2283 24.1252 11.5426C24.7783 11.8187 26.135 12.3531 26.3373 12.2814C26.3862 12.264 26.5067 12.1726 26.6747 12.0452C27.3758 11.5135 28.9043 10.3543 29.5123 11.3261C30.2662 12.5309 30.4181 12.7852 29.9156 13.7681C29.8253 13.9447 29.706 14.1521 29.5761 14.3781C28.983 15.4094 28.1674 16.8279 28.8639 17.4794C29.713 18.2738 32.0964 18.7293 33.5683 17.6593C34.7459 16.8032 35.5272 16.1882 35.7706 15.9877C35.6653 17.0465 35.1058 19.1955 33.7098 19.321C31.9647 19.4779 26.2327 20.998 25.4491 21.7382C25.4409 20.6226 25.5937 18.0816 26.2697 16.842C22.1914 17.3873 12.7352 21.1131 7.53665 31.6541Z" fill="white"/>
<path d="M23.1477 12.3003C22.2254 12.9413 20.1754 14.8716 19.354 17.4638C21.1718 16.6306 25.1653 15.0391 26.5976 15.339C25.6119 14.9811 23.3136 14.4019 22.0054 14.9481C21.9987 14.6138 22.2177 13.6163 23.1477 12.3003Z" fill="white"/>
<path d="M18.4192 14.3281C18.7317 14.1198 18.8683 13.7656 18.7243 13.5371C18.5802 13.3086 18.2101 13.2922 17.8975 13.5006C17.5849 13.709 17.4484 14.0631 17.5924 14.2917C17.7365 14.5202 18.1066 14.5365 18.4192 14.3281Z" fill="white"/>
<path d="M18.0264 17.1134C18.1604 17.3259 18.0156 17.667 17.703 17.8754C17.3905 18.0838 17.0285 18.0805 16.8945 17.868C16.7606 17.6555 16.9054 17.3143 17.218 17.106C17.5305 16.8976 17.8925 16.9009 18.0264 17.1134Z" fill="white"/>
<path d="M14.7862 18.1937C15.2045 17.9149 15.3982 17.4583 15.219 17.174C15.0397 16.8897 14.5554 16.8852 14.1371 17.1641C13.7189 17.4429 13.5251 17.8994 13.7044 18.1837C13.8836 18.4681 14.368 18.4725 14.7862 18.1937Z" fill="white"/>
<path d="M11.1235 18.8624C11.3405 19.2066 11.1398 19.7366 10.6753 20.0463C10.2108 20.356 9.65836 20.328 9.44137 19.9838C9.22439 19.6396 9.42505 19.1095 9.88955 18.7998C10.3541 18.4902 10.9065 18.5182 11.1235 18.8624Z" fill="white"/>
<path d="M13.4547 21.5648C13.8066 21.3302 13.9503 20.9155 13.7758 20.6386C13.6012 20.3616 13.1744 20.3273 12.8225 20.5619C12.4706 20.7965 12.3268 21.2112 12.5014 21.4881C12.676 21.7651 13.1028 21.7994 13.4547 21.5648Z" fill="white"/>
<path d="M10.3779 24.1032C10.5783 24.421 10.4328 24.8839 10.0531 25.1371C9.6733 25.3903 9.20302 25.3379 9.00267 25.0201C8.80231 24.7022 8.94776 24.2394 9.32752 23.9862C9.70729 23.733 10.1776 23.7854 10.3779 24.1032Z" fill="white"/>
<path d="M13.1326 29.5869C13.5404 29.3151 13.7252 28.8635 13.5455 28.5784C13.3658 28.2933 12.8895 28.2825 12.4817 28.5544C12.0739 28.8262 11.889 29.2778 12.0687 29.5629C12.2485 29.848 12.7248 29.8588 13.1326 29.5869Z" fill="white"/>
<path d="M17.6864 27.9493C17.8931 28.2772 17.6507 28.8163 17.1449 29.1535C16.6392 29.4907 16.0616 29.4982 15.8549 29.1703C15.6482 28.8424 15.8906 28.3033 16.3964 27.9661C16.9022 27.629 17.4797 27.6214 17.6864 27.9493Z" fill="white"/>
<path d="M18.5963 25.155C19.0505 24.8521 19.2676 24.3669 19.0812 24.0712C18.8948 23.7754 18.3754 23.7812 17.9212 24.084C17.4669 24.3868 17.2498 24.8721 17.4363 25.1678C17.6227 25.4635 18.1421 25.4578 18.5963 25.155Z" fill="white"/>
<path d="M47.7917 25.5V15H52.5917C53.5517 15 54.3767 15.155 55.0667 15.465C55.7667 15.775 56.3067 16.225 56.6867 16.815C57.0667 17.395 57.2567 18.085 57.2567 18.885C57.2567 19.675 57.0667 20.36 56.6867 20.94C56.3067 21.52 55.7667 21.97 55.0667 22.29C54.3767 22.6 53.5517 22.755 52.5917 22.755H49.4417L50.7617 21.465V25.5H47.7917ZM50.7617 21.78L49.4417 20.415H52.4117C53.0317 20.415 53.4917 20.28 53.7917 20.01C54.1017 19.74 54.2567 19.365 54.2567 18.885C54.2567 18.395 54.1017 18.015 53.7917 17.745C53.4917 17.475 53.0317 17.34 52.4117 17.34H49.4417L50.7617 15.975V21.78ZM60.6636 25.5V16.695L61.3236 17.355H57.4386V15H66.7986V17.355H62.9286L63.5886 16.695V25.5H60.6636ZM74.753 21.3V19.11H79.703V21.3H74.753ZM76.163 14.79C76.973 14.79 77.713 14.925 78.383 15.195C79.053 15.455 79.633 15.83 80.123 16.32C80.623 16.81 81.008 17.39 81.278 18.06C81.558 18.72 81.698 19.45 81.698 20.25C81.698 21.05 81.558 21.785 81.278 22.455C81.008 23.115 80.623 23.69 80.123 24.18C79.633 24.67 79.053 25.05 78.383 25.32C77.713 25.58 76.973 25.71 76.163 25.71C75.183 25.71 74.308 25.54 73.538 25.2C72.768 24.85 72.128 24.36 71.618 23.73L73.493 22.02C73.833 22.42 74.208 22.725 74.618 22.935C75.038 23.145 75.503 23.25 76.013 23.25C76.413 23.25 76.778 23.18 77.108 23.04C77.438 22.9 77.718 22.7 77.948 22.44C78.188 22.17 78.368 21.85 78.488 21.48C78.618 21.11 78.683 20.7 78.683 20.25C78.683 19.8 78.618 19.39 78.488 19.02C78.368 18.65 78.188 18.335 77.948 18.075C77.718 17.805 77.438 17.6 77.108 17.46C76.778 17.32 76.413 17.25 76.013 17.25C75.503 17.25 75.038 17.355 74.618 17.565C74.208 17.775 73.833 18.08 73.493 18.48L71.618 16.77C72.128 16.13 72.768 15.64 73.538 15.3C74.308 14.96 75.183 14.79 76.163 14.79ZM89.9296 25.5L86.9746 20.505L89.3596 19.095L93.2746 25.5H89.9296ZM83.2396 25.5V15H86.1946V25.5H83.2396ZM85.3396 21.48V19.08H89.1496V21.48H85.3396ZM89.6446 20.565L86.8996 20.265L90.1246 15H93.2446L89.6446 20.565ZM99.2837 25.71C98.4537 25.71 97.6837 25.58 96.9737 25.32C96.2737 25.05 95.6637 24.67 95.1437 24.18C94.6337 23.69 94.2337 23.115 93.9437 22.455C93.6537 21.785 93.5087 21.05 93.5087 20.25C93.5087 19.45 93.6537 18.72 93.9437 18.06C94.2337 17.39 94.6337 16.81 95.1437 16.32C95.6637 15.83 96.2737 15.455 96.9737 15.195C97.6837 14.925 98.4537 14.79 99.2837 14.79C100.254 14.79 101.119 14.96 101.879 15.3C102.649 15.64 103.289 16.13 103.799 16.77L101.909 18.48C101.569 18.08 101.194 17.775 100.784 17.565C100.384 17.355 99.9337 17.25 99.4337 17.25C99.0037 17.25 98.6087 17.32 98.2487 17.46C97.8887 17.6 97.5787 17.805 97.3187 18.075C97.0687 18.335 96.8687 18.65 96.7187 19.02C96.5787 19.39 96.5087 19.8 96.5087 20.25C96.5087 20.7 96.5787 21.11 96.7187 21.48C96.8687 21.85 97.0687 22.17 97.3187 22.44C97.5787 22.7 97.8887 22.9 98.2487 23.04C98.6087 23.18 99.0037 23.25 99.4337 23.25C99.9337 23.25 100.384 23.145 100.784 22.935C101.194 22.725 101.569 22.42 101.909 22.02L103.799 23.73C103.289 24.36 102.649 24.85 101.879 25.2C101.119 25.54 100.254 25.71 99.2837 25.71ZM105.14 25.5V15H114.995V25.5H112.055V16.695L112.715 17.355H107.42L108.065 16.695V25.5H105.14ZM117.24 25.5V15H122.04C123 15 123.825 15.155 124.515 15.465C125.215 15.775 125.755 16.225 126.135 16.815C126.515 17.395 126.705 18.085 126.705 18.885C126.705 19.675 126.515 20.36 126.135 20.94C125.755 21.52 125.215 21.97 124.515 22.29C123.825 22.6 123 22.755 122.04 22.755H118.89L120.21 21.465V25.5H117.24ZM120.21 21.78L118.89 20.415H121.86C122.48 20.415 122.94 20.28 123.24 20.01C123.55 19.74 123.705 19.365 123.705 18.885C123.705 18.395 123.55 18.015 123.24 17.745C122.94 17.475 122.48 17.34 121.86 17.34H118.89L120.21 15.975V21.78ZM130.781 19.065H135.656V21.285H130.781V19.065ZM130.991 23.205H136.481V25.5H128.051V15H136.286V17.295H130.991V23.205ZM143.288 25.71C142.458 25.71 141.688 25.58 140.978 25.32C140.278 25.05 139.668 24.67 139.148 24.18C138.638 23.69 138.238 23.115 137.948 22.455C137.658 21.785 137.513 21.05 137.513 20.25C137.513 19.45 137.658 18.72 137.948 18.06C138.238 17.39 138.638 16.81 139.148 16.32C139.668 15.83 140.278 15.455 140.978 15.195C141.688 14.925 142.458 14.79 143.288 14.79C144.258 14.79 145.123 14.96 145.883 15.3C146.653 15.64 147.293 16.13 147.803 16.77L145.913 18.48C145.573 18.08 145.198 17.775 144.788 17.565C144.388 17.355 143.938 17.25 143.438 17.25C143.008 17.25 142.613 17.32 142.253 17.46C141.893 17.6 141.583 17.805 141.323 18.075C141.073 18.335 140.873 18.65 140.723 19.02C140.583 19.39 140.513 19.8 140.513 20.25C140.513 20.7 140.583 21.11 140.723 21.48C140.873 21.85 141.073 22.17 141.323 22.44C141.583 22.7 141.893 22.9 142.253 23.04C142.613 23.18 143.008 23.25 143.438 23.25C143.938 23.25 144.388 23.145 144.788 22.935C145.198 22.725 145.573 22.42 145.913 22.02L147.803 23.73C147.293 24.36 146.653 24.85 145.883 25.2C145.123 25.54 144.258 25.71 143.288 25.71ZM154.04 25.71C153.21 25.71 152.44 25.58 151.73 25.32C151.03 25.05 150.42 24.67 149.9 24.18C149.39 23.69 148.99 23.115 148.7 22.455C148.41 21.785 148.265 21.05 148.265 20.25C148.265 19.45 148.41 18.72 148.7 18.06C148.99 17.39 149.39 16.81 149.9 16.32C150.42 15.83 151.03 15.455 151.73 15.195C152.44 14.925 153.21 14.79 154.04 14.79C155.01 14.79 155.875 14.96 156.635 15.3C157.405 15.64 158.045 16.13 158.555 16.77L156.665 18.48C156.325 18.08 155.95 17.775 155.54 17.565C155.14 17.355 154.69 17.25 154.19 17.25C153.76 17.25 153.365 17.32 153.005 17.46C152.645 17.6 152.335 17.805 152.075 18.075C151.825 18.335 151.625 18.65 151.475 19.02C151.335 19.39 151.265 19.8 151.265 20.25C151.265 20.7 151.335 21.11 151.475 21.48C151.625 21.85 151.825 22.17 152.075 22.44C152.335 22.7 152.645 22.9 153.005 23.04C153.365 23.18 153.76 23.25 154.19 23.25C154.69 23.25 155.14 23.145 155.54 22.935C155.95 22.725 156.325 22.42 156.665 22.02L158.555 23.73C158.045 24.36 157.405 24.85 156.635 25.2C155.875 25.54 155.01 25.71 154.04 25.71Z" fill="white"/>
</svg>

<svg xmlns="http://www.w3.org/2000/svg" width="167" height="40" fill="none"><rect width="18.75" height="19.608" x="11.917" y="9.804" fill="#0C6" opacity=".5" rx="9.375"/><path fill="#fff" d="M7.537 31.654c2.117-2.669 7.72-8.303 13.194-9.492-.726 2.187-2.007 7.482-1.329 11.171 1.27-2.927 6.094-9.67 15.222-13.223 1.087-.746 2.92-3.786 1.56-9.986-.167-.164-1.335-.684-4.683-1.455-.448-.16-1.625-.724-2.75-1.695-1.406-1.213-10.167 1.45-12.18 3.038-1.456-.271-4.601-.337-5.533 1.569-.932 1.905.036 2.72.637 2.89-1.602 1.081-4.845 3.53-5.008 4.67 1.866-1.285 6.207-3.894 8.642-4.06-.729-1.162-1.417-3.489 1.656-3.497 2.734-1.541 8.74-4.443 10.884-3.725.937.54 2.9 1.628 3.267 1.648.458.026 2.63.3 2.653.566.01.115-.149.27-.323.442-.228.224-.482.474-.426.697.04.16.46.411.945.701.7.418 1.537.918 1.574 1.35.013.155.05.323.09.499.147.65.315 1.4-.662 1.963-.142.082-.291.172-.445.266-1.2.73-2.708 1.649-3.327-.195-.352-1.051-.364-1.996-.373-2.779-.009-.766-.016-1.376-.34-1.778-.655-.812-2.28-1.536-3.544-1.088-1.012.359-2.297 1.077-2.813 1.392.653.276 2.01.81 2.212.738.05-.017.17-.108.338-.236.7-.531 2.23-1.69 2.837-.719.754 1.205.906 1.46.404 2.442-.09.177-.21.384-.34.61-.593 1.031-1.409 2.45-.712 3.101.849.795 3.232 1.25 4.704.18a54.1 54.1 0 0 0 2.203-1.671c-.106 1.059-.665 3.207-2.061 3.333-1.745.157-7.477 1.677-8.26 2.417-.01-1.115.144-3.656.82-4.896-4.079.545-13.535 4.271-18.733 14.812Z"/><path fill="#fff" d="M23.148 12.3c-.923.641-2.973 2.572-3.794 5.164 1.818-.833 5.811-2.425 7.244-2.125-.986-.358-3.284-.937-4.593-.39-.006-.335.213-1.333 1.143-2.649Zm-4.728 2.028c.312-.208.448-.562.304-.79-.144-.23-.514-.246-.826-.037-.313.208-.45.562-.306.79.145.23.515.245.827.037Zm-.394 2.785c.134.213-.01.554-.323.762-.313.209-.674.206-.808-.007-.134-.212.01-.554.323-.762.313-.208.674-.205.808.007Zm-3.24 1.081c.418-.28.612-.736.433-1.02-.18-.284-.664-.289-1.082-.01-.418.279-.612.735-.433 1.02.18.284.664.288 1.082.01Zm-3.663.668c.218.345.017.875-.448 1.184-.464.31-1.017.282-1.234-.062-.217-.344-.016-.875.449-1.184.464-.31 1.016-.282 1.233.062Zm2.332 2.703c.352-.235.495-.65.32-.926-.174-.277-.6-.312-.953-.077-.351.235-.495.65-.32.926.174.277.6.311.953.077Zm-3.077 2.538c.2.318.055.78-.325 1.034-.38.253-.85.2-1.05-.117-.2-.318-.055-.78.325-1.034.38-.253.85-.2 1.05.117Zm2.755 5.484c.407-.272.592-.724.413-1.009-.18-.285-.656-.296-1.064-.024-.408.272-.593.724-.413 1.009.18.285.656.296 1.064.024Zm4.553-1.637c.207.327-.035.866-.541 1.204-.506.337-1.083.344-1.29.016-.207-.328.036-.867.541-1.204.506-.337 1.084-.345 1.29-.017Zm.91-2.795c.454-.303.672-.788.485-1.084-.186-.296-.706-.29-1.16.013-.454.303-.671.788-.485 1.084.187.296.706.29 1.16-.013Zm29.196.345V15h4.8c.96 0 1.785.155 2.475.465.7.31 1.24.76 1.62 1.35.38.58.57 1.27.57 2.07 0 .79-.19 1.475-.57 2.055-.38.58-.92 1.03-1.62 1.35-.69.31-1.515.465-2.475.465h-3.15l1.32-1.29V25.5h-2.97Zm2.97-3.72-1.32-1.365h2.97c.62 0 1.08-.135 1.38-.405.31-.27.465-.645.465-1.125 0-.49-.155-.87-.465-1.14-.3-.27-.76-.405-1.38-.405h-2.97l1.32-1.365v5.805Zm9.902 3.72v-8.805l.66.66h-3.885V15h9.36v2.355h-3.87l.66-.66V25.5h-2.925Zm14.089-4.2v-2.19h4.95v2.19h-4.95Zm1.41-6.51c.81 0 1.55.135 2.22.405.67.26 1.25.635 1.74 1.125.5.49.885 1.07 1.155 1.74.28.66.42 1.39.42 2.19s-.14 1.535-.42 2.205a5.082 5.082 0 0 1-1.155 1.725c-.49.49-1.07.87-1.74 1.14-.67.26-1.41.39-2.22.39-.98 0-1.855-.17-2.625-.51-.77-.35-1.41-.84-1.92-1.47l1.875-1.71c.34.4.715.705 1.125.915.42.21.885.315 1.395.315.4 0 .765-.07 1.095-.21.33-.14.61-.34.84-.6.24-.27.42-.59.54-.96.13-.37.195-.78.195-1.23 0-.45-.065-.86-.195-1.23-.12-.37-.3-.685-.54-.945-.23-.27-.51-.475-.84-.615-.33-.14-.695-.21-1.095-.21-.51 0-.975.105-1.395.315a3.69 3.69 0 0 0-1.125.915l-1.875-1.71c.51-.64 1.15-1.13 1.92-1.47.77-.34 1.645-.51 2.625-.51ZM89.93 25.5l-2.955-4.995 2.385-1.41 3.915 6.405H89.93Zm-6.69 0V15h2.955v10.5H83.24Zm2.1-4.02v-2.4h3.81v2.4h-3.81Zm4.305-.915-2.745-.3L90.125 15h3.12l-3.6 5.565Zm9.639 5.145c-.83 0-1.6-.13-2.31-.39-.7-.27-1.31-.65-1.83-1.14a5.353 5.353 0 0 1-1.2-1.725 5.492 5.492 0 0 1-.435-2.205c0-.8.145-1.53.435-2.19.29-.67.69-1.25 1.2-1.74.52-.49 1.13-.865 1.83-1.125.71-.27 1.48-.405 2.31-.405.97 0 1.835.17 2.595.51.77.34 1.41.83 1.92 1.47l-1.89 1.71a3.69 3.69 0 0 0-1.125-.915 2.86 2.86 0 0 0-1.35-.315c-.43 0-.825.07-1.185.21-.36.14-.67.345-.93.615-.25.26-.45.575-.6.945-.14.37-.21.78-.21 1.23 0 .45.07.86.21 1.23.15.37.35.69.6.96.26.26.57.46.93.6.36.14.755.21 1.185.21.5 0 .95-.105 1.35-.315a3.69 3.69 0 0 0 1.125-.915l1.89 1.71c-.51.63-1.15 1.12-1.92 1.47-.76.34-1.625.51-2.595.51Zm5.856-.21V15h9.855v10.5h-2.94v-8.805l.66.66h-5.295l.645-.66V25.5h-2.925Zm12.1 0V15h4.8c.96 0 1.785.155 2.475.465.7.31 1.24.76 1.62 1.35.38.58.57 1.27.57 2.07 0 .79-.19 1.475-.57 2.055-.38.58-.92 1.03-1.62 1.35-.69.31-1.515.465-2.475.465h-3.15l1.32-1.29V25.5h-2.97Zm2.97-3.72-1.32-1.365h2.97c.62 0 1.08-.135 1.38-.405.31-.27.465-.645.465-1.125 0-.49-.155-.87-.465-1.14-.3-.27-.76-.405-1.38-.405h-2.97l1.32-1.365v5.805Zm10.571-2.715h4.875v2.22h-4.875v-2.22Zm.21 4.14h5.49V25.5h-8.43V15h8.235v2.295h-5.295v5.91Zm12.297 2.505c-.83 0-1.6-.13-2.31-.39-.7-.27-1.31-.65-1.83-1.14a5.353 5.353 0 0 1-1.2-1.725 5.492 5.492 0 0 1-.435-2.205c0-.8.145-1.53.435-2.19.29-.67.69-1.25 1.2-1.74.52-.49 1.13-.865 1.83-1.125.71-.27 1.48-.405 2.31-.405.97 0 1.835.17 2.595.51.77.34 1.41.83 1.92 1.47l-1.89 1.71a3.69 3.69 0 0 0-1.125-.915 2.86 2.86 0 0 0-1.35-.315c-.43 0-.825.07-1.185.21-.36.14-.67.345-.93.615-.25.26-.45.575-.6.945-.14.37-.21.78-.21 1.23 0 .45.07.86.21 1.23.15.37.35.69.6.96.26.26.57.46.93.6.36.14.755.21 1.185.21.5 0 .95-.105 1.35-.315a3.69 3.69 0 0 0 1.125-.915l1.89 1.71c-.51.63-1.15 1.12-1.92 1.47-.76.34-1.625.51-2.595.51Zm10.752 0c-.83 0-1.6-.13-2.31-.39-.7-.27-1.31-.65-1.83-1.14a5.353 5.353 0 0 1-1.2-1.725 5.492 5.492 0 0 1-.435-2.205c0-.8.145-1.53.435-2.19.29-.67.69-1.25 1.2-1.74.52-.49 1.13-.865 1.83-1.125.71-.27 1.48-.405 2.31-.405.97 0 1.835.17 2.595.51.77.34 1.41.83 1.92 1.47l-1.89 1.71a3.69 3.69 0 0 0-1.125-.915 2.86 2.86 0 0 0-1.35-.315c-.43 0-.825.07-1.185.21-.36.14-.67.345-.93.615-.25.26-.45.575-.6.945-.14.37-.21.78-.21 1.23 0 .45.07.86.21 1.23.15.37.35.69.6.96.26.26.57.46.93.6.36.14.755.21 1.185.21.5 0 .95-.105 1.35-.315a3.69 3.69 0 0 0 1.125-.915l1.89 1.71c-.51.63-1.15 1.12-1.92 1.47-.76.34-1.625.51-2.595.51Z"/></svg>
